X:212
T:reel d'Ariane
C:Julien Despr\'es
Z:robin.beech@mcgill.ca
M:4/4
L:1/8
K:Dmix
DAAG ABcA | d3e fdfa | gedc A3B | cAAd A2cA |1 GEGA D2z2 :|2 GEGA D2de |:
fddg eefd | cAAB c3A | GEEc- cBAG | Adde f2de | 
fddg eefd | cAAG c3A | GEEc- cBAG |1 Adde d2de :|2 Adde d2z2 |]

